assets/icons/qvision/rss_feed.svg

<svg width="24" height="24" viewBox="0 0 24 24" fill="none" xmlns="http://www.w3.org/2000/svg">
<g clip-path="url(#clip0_147_1993)">
<path d="M6.18 20C7.38398 20 8.36 19.024 8.36 17.82C8.36 16.616 7.38398 15.64 6.18 15.64C4.97602 15.64 4 16.616 4 17.82C4 19.024 4.97602 20 6.18 20Z" fill="#323232"/>
<path d="M4 4.44V7.27C11.03 7.27 16.73 12.97 16.73 20H19.56C19.56 11.41 12.59 4.44 4 4.44ZM4 10.1V12.93C7.9 12.93 11.07 16.1 11.07 20H13.9C13.9 14.53 9.47 10.1 4 10.1Z" fill="#323232"/>
</g>
<defs>
<clipPath id="clip0_147_1993">
<rect width="24" height="24" fill="white"/>
</clipPath>
</defs>
</svg>

<svg xmlns="http://www.w3.org/2000/svg" height="24" viewBox="0 0 24 24" width="24"><path d="M0 0h24v24H0z" fill="none"/><circle cx="6.18" cy="17.82" r="2.18"/><path d="M4 4.44v2.83c7.03 0 12.73 5.7 12.73 12.73h2.83c0-8.59-6.97-15.56-15.56-15.56zm0 5.66v2.83c3.9 0 7.07 3.17 7.07 7.07h2.83c0-5.47-4.43-9.9-9.9-9.9z"/></svg>
